X:306
T: ALLES SCHLAEFT NUR SILBERN SCHALLET
N: B0363
O: Europa, Mitteleuropa, Deutschland
R: Liebes - Lied, Liebes - Lust
M: 2/4
L: 1/8
K: G
 | d2cB | B3d | edcB | B2A2
Bd^ce | dABG | F2E2 | D4
d2cB | B3d | edcB | B2A2
Bd^ce | dABG | F2E2 | D4
DFFA | Acce | edcB | B2A2
d3d | e3c | B2A2 | A2G2
g3d | e3c | B2A2 | G4

